logos/stackbit.svg

<?xml version="1.0" encoding="UTF-8"?>
<svg width="512px" height="87px" viewBox="0 0 512 87" version="1.1" xmlns="http://www.w3.org/2000/svg" preserveAspectRatio="xMidYMid">
    <title>Stackbit</title>
    <g>
        <path d="M149.387613,6.67283976 C163.638013,6.67283976 173.574012,13.4933595 177.456012,22.8297592 L166.286813,34.0187588 C166.286813,25.1737191 159.820013,18.8937593 149.387613,18.8937593 C140.936013,18.8937593 134.886814,22.7511592 134.886814,29.1146789 C134.886814,34.9076953 139.752577,37.2546158 146.286602,38.8972805 L148.026872,39.3116289 L148.026872,39.3116289 L149.830213,39.7048431 L149.830213,39.7048431 L156.456481,41.0708282 L156.456481,41.0708282 L158.387544,41.5027963 L158.387544,41.5027963 L160.3123,41.9731227 C170.538419,44.6030486 179.957212,49.3311113 179.957212,63.5415977 C179.957212,78.4599971 166.915613,86.9119968 150.223213,86.9119968 C136.233214,86.9119968 124.587214,80.7451971 120.214014,69.3547975 L132.071214,57.4923979 C132.071214,68.0279975 138.950814,74.6911973 150.223213,74.6911973 C159.068013,74.6911973 165.662813,70.6223974 165.662813,64.0523977 C165.662813,57.8463457 160.210061,55.5283481 153.097777,53.8624437 L151.287327,53.4576802 L151.287327,53.4576802 L144.596374,52.0927566 L144.596374,52.0927566 L141.658853,51.4481618 L141.658853,51.4481618 L139.710109,50.9704661 C129.6898,48.3790539 120.592414,43.7262454 120.592414,30.0384789 C120.592414,15.9551994 133.530414,6.67283976 149.387613,6.67283976 Z M201.077611,10.4423996 L201.077611,31.0807989 L216.310811,31.0807989 L216.310811,42.5843985 L201.077611,42.5843985 L201.077611,66.7899976 C201.077611,72.9423996 203.269211,74.5099973 208.488011,74.5099973 C210.906411,74.4319973 213.314411,74.1523973 215.686811,73.6743973 L215.686811,85.4679969 C214.435344,85.9527969 211.607166,86.3481746 209.335137,86.5578931 L207.768718,86.6788672 C207.303556,86.7065857 206.906478,86.7211968 206.610811,86.7211968 C194.193212,86.7211968 187.515212,81.502397 187.515212,68.6723975 L187.515212,42.5843985 L177.687612,42.5843985 L177.687612,31.1004789 L187.515212,31.1004789 L187.515212,24.0145991 L201.077611,10.4423996 Z M496.768001,10.4423996 L496.768001,31.0807989 L512,31.0807989 L512,42.5843985 L496.768001,42.5843985 L496.768001,66.7899976 C496.768001,72.9423996 498.96,74.5099973 504.176,74.5099973 C506.596,74.4319973 509.004,74.1523973 511.376001,73.6743973 L511.376001,85.4679969 C510.125333,85.9527969 507.296,86.3481746 505.023704,86.5578931 L503.457297,86.6788672 C502.992223,86.7065857 502.595334,86.7211968 502.3,86.7211968 C489.884001,86.7211968 483.204001,81.502397 483.204001,68.6723975 L483.204001,42.5843985 L473.376001,42.5843985 L473.376001,31.1004789 L483.204001,31.1004789 L483.204001,24.0145991 L496.768001,10.4423996 Z M334.514406,44.5495984 L322.514807,51.5371981 C321.266807,45.3799983 315.635207,41.5227985 308.957207,41.5227985 C300.112408,41.5227985 293.827608,47.5715983 293.827608,58.0039979 C293.827608,68.4363975 299.984408,74.5243973 308.957207,74.5243973 C315.424007,74.5243973 320.952407,70.2443974 322.514807,64.8195976 L334.200006,71.6007974 C330.549207,80.2591971 321.055207,86.9371968 308.957207,86.9371968 C291.532408,86.9371968 279.744008,75.1435973 279.744008,58.0383979 C279.744008,41.0363985 291.950408,29.1395843 308.957207,29.1395843 C320.952007,29.1151589 330.966807,35.7931587 334.514406,44.5495984 Z M351.506806,8.67771968 L351.506806,51.0355981 L371.850405,31.1097589 L390.002404,31.1097589 L366.631605,53.747998 L390.523204,85.3347969 L373.938805,85.3347969 L357.138006,62.9027977 L351.506806,68.3079975 L351.506806,85.3347969 L337.944406,85.3347969 L337.944406,8.67771968 L351.506806,8.67771968 Z M406.752004,8.67771968 L406.752004,36.8344387 C410.924004,32.1416388 416.872003,29.1146789 424.804003,29.1146789 C440.868003,29.1146789 452.132002,41.6351985 452.132002,58.2247979 C452.132002,74.6027973 440.868003,86.9119968 424.700003,86.9119968 C416.768003,86.9119968 410.824004,83.8851969 406.652004,79.1923971 L406.652004,85.3347969 L393.191604,85.3347969 L393.191604,8.67771968 L406.752004,8.67771968 Z M422.092003,74.6123973 C431.268003,74.6123973 438.052003,68.0375975 438.052003,58.2343979 C438.052003,48.2199982 431.268003,41.4387985 422.092003,41.4387985 C413.432004,41.4387985 406.336004,48.0087983 406.336004,58.2343979 C406.336004,68.2391975 413.456004,74.6027973 422.092003,74.6027973 L422.092003,74.6123973 Z M455.780002,8.67771968 L469.864002,8.67771968 L469.864002,22.2401192 L455.780002,22.2401192 L455.780002,8.67771968 Z M469.540002,31.1097589 L469.540002,85.3347969 L455.976002,85.3347969 L455.976002,31.0999189 L469.540002,31.1097589 Z M275.999209,30.9374789 L276.004409,85.3343969 L262.928409,85.3343969 L263.134809,78.5335971 C258.953209,83.555597 252.781209,86.8871968 244.51601,86.8871968 C228.30001,86.8871968 216.998011,74.5435973 216.998011,58.1211979 C216.998011,41.4875985 228.19201,28.9325989 244.40801,28.9325989 C252.270009,28.9325989 258.216009,31.9645188 262.397609,36.5688387 L262.397609,30.9374789 L275.999209,30.9374789 Z M247.01241,74.5483973 C255.695209,74.5483973 262.913609,68.1603975 262.913609,58.1259979 C262.913609,47.8707983 255.695209,41.2811985 247.01241,41.2811985 C237.91161,41.2811985 231.11081,48.0819983 231.11081,58.1259979 C231.15001,67.9735975 237.92641,74.5631973 247.02681,74.5631973 L247.01241,74.5483973 Z" fill="#000022"></path>
        <path d="M60.0968164,26.707039 L80.9024157,37.2080386 C82.6728156,38.0947586 84.1620156,39.4563186 85.2036155,41.1407985 C86.0960726,42.584227 86.6294114,44.2163249 86.7645881,45.9003132 L86.7988155,46.7459983 L86.7988155,70.7847974 C86.7988155,75.0339973 85.1112155,79.1087971 82.1072156,82.113997 C79.3177872,84.9041683 75.6054118,86.5596254 71.687157,86.7831648 L70.779616,86.8091968 L0.0537294173,86.8091968 L26.7313376,60.0971978 L60.0968164,60.0971978 L60.0968164,26.707039 Z M86.7500155,2.27373667e-13 L60.0972164,26.707119 L26.7316976,26.707119 L26.7316976,60.0971978 L5.87213841,49.6255982 C4.10609847,48.7343982 2.62206652,47.3703983 1.58531456,45.6851983 C0.696670022,44.2410841 0.166708899,42.6100638 0.0334270379,40.9276568 L-9.23705556e-14,40.0827985 L-9.23705556e-14,16.0488394 C-0.00319223664,13.9424395 0.408906604,11.8560396 1.21275458,9.90907964 C2.01660255,7.96207971 3.1964225,6.19267977 4.68473845,4.70207983 C6.17305839,3.21147988 7.94065833,2.02894793 9.88641826,1.22211996 C11.5078849,0.54975998 13.2265459,0.14930555 14.9733736,0.0344974062 L16.024298,2.27373667e-13 L86.7500155,2.27373667e-13 Z" fill="#FF364E"></path>
    </g>
</svg>

<svg preserveAspectRatio="xMidYMid" viewBox="0 0 512 87" xmlns="http://www.w3.org/2000/svg">
  <path fill="#002" d="M149.388 6.673c14.25 0 24.186 6.82 28.068 16.157l-11.17 11.189c0-8.845-6.466-15.125-16.898-15.125-8.452 0-14.501 3.857-14.501 10.22 0 5.794 4.866 8.14 11.4 9.783l1.74.415 1.803.393 6.626 1.366 1.932.432 1.924.47c10.226 2.63 19.645 7.358 19.645 21.569 0 14.918-13.041 23.37-29.734 23.37-13.99 0-25.636-6.167-30.009-17.557l11.857-11.863c0 10.536 6.88 17.2 18.152 17.2 8.845 0 15.44-4.07 15.44-10.64 0-6.206-5.453-8.524-12.565-10.19l-1.81-.404-6.692-1.365-2.937-.645-1.949-.478c-10.02-2.59-19.118-7.244-19.118-20.932 0-14.083 12.938-23.365 28.796-23.365Zm51.69 3.77V31.08h15.233v11.503h-15.233V66.79c0 6.152 2.191 7.72 7.41 7.72a43.556 43.556 0 0 0 7.199-.836v11.794c-1.252.485-4.08.88-6.352 1.09l-1.566.12c-.465.029-.863.043-1.158.043-12.418 0-19.096-5.219-19.096-18.049V42.584h-9.827V31.1h9.827v-7.085l13.563-13.573Zm295.69 0V31.08H512v11.503h-15.232V66.79c0 6.152 2.192 7.72 7.408 7.72a43.546 43.546 0 0 0 7.2-.836v11.794c-1.25.485-4.08.88-6.352 1.09l-1.567.12c-.465.029-.862.043-1.157.043-12.416 0-19.096-5.219-19.096-18.049V42.584h-9.828V31.1h9.828v-7.085l13.564-13.573ZM334.514 44.55l-12 6.987c-1.247-6.157-6.879-10.014-13.557-10.014-8.845 0-15.13 6.049-15.13 16.481 0 10.432 6.157 16.52 15.13 16.52 6.467 0 11.995-4.28 13.558-9.704L334.2 71.6c-3.65 8.66-13.145 15.337-25.243 15.337-17.425 0-29.213-11.793-29.213-28.899 0-17.002 12.206-28.898 29.213-28.898 11.995-.025 22.01 6.653 25.557 15.41Zm16.993-35.872v42.358L371.85 31.11h18.152l-23.37 22.638 23.891 31.587H373.94l-16.801-22.432-5.631 5.405v17.027h-13.563V8.678h13.563Zm55.245 0v28.156c4.172-4.692 10.12-7.72 18.052-7.72 16.064 0 27.328 12.521 27.328 29.11 0 16.379-11.264 28.688-27.432 28.688-7.932 0-13.876-3.027-18.048-7.72v6.143h-13.46V8.678h13.56Zm15.34 65.934c9.176 0 15.96-6.574 15.96-16.378 0-10.014-6.784-16.795-15.96-16.795-8.66 0-15.756 6.57-15.756 16.795 0 10.005 7.12 16.369 15.756 16.369v.01ZM455.78 8.678h14.084V22.24H455.78V8.678Zm13.76 22.432v54.225h-13.564V31.1l13.564.01ZM276 30.937l.004 54.397h-13.076l.207-6.8c-4.182 5.022-10.354 8.353-18.619 8.353-16.216 0-27.518-12.343-27.518-28.766 0-16.633 11.194-29.188 27.41-29.188 7.862 0 13.808 3.032 17.99 7.636v-5.632h13.601Zm-28.988 43.611c8.683 0 15.902-6.388 15.902-16.422 0-10.255-7.219-16.845-15.902-16.845-9.1 0-15.901 6.801-15.901 16.845.039 9.848 6.815 16.437 15.916 16.437l-.015-.015Z"/>
  <path fill="#FF364E" d="m60.097 26.707 20.805 10.501a10.681 10.681 0 0 1 5.863 8.692l.034.846v24.039a16.025 16.025 0 0 1-15.112 15.998l-.907.026H.054L26.73 60.097h33.366v-33.39ZM86.75 0 60.097 26.707H26.732v33.39L5.872 49.626a10.685 10.685 0 0 1-5.839-8.698L0 40.083V16.049A16.025 16.025 0 0 1 14.973.034L16.024 0H86.75Z"/>
</svg>
